src/lib/packages/icons/src/assets/line/calendar-lock.svg

<svg xmlns="http://www.w3.org/2000/svg" width="24" height="24" fill="none"><path fill="currentColor" d="M18 3.75h-1.25V3a.75.75 0 0 0-1.5 0v.75h-6.5V3a.75.75 0 0 0-1.5 0v.75H6c-2.418 0-3.75 1.332-3.75 3.75V18c0 2.418 1.332 3.75 3.75 3.75h12c2.418 0 3.75-1.332 3.75-3.75V7.5c0-2.418-1.332-3.75-3.75-3.75ZM6 5.25h1.25V6a.75.75 0 0 0 1.5 0v-.75h6.5V6a.75.75 0 0 0 1.5 0v-.75H18c1.577 0 2.25.673 2.25 2.25v.75H3.75V7.5c0-1.577.673-2.25 2.25-2.25Zm12 15H6c-1.577 0-2.25-.673-2.25-2.25V9.75h16.5V18c0 1.577-.673 2.25-2.25 2.25Zm-3.75-6.323V13c0-1.241-1.01-2.25-2.25-2.25A2.253 2.253 0 0 0 9.75 13v.927c-.629.277-1 .873-1 1.698v1.75c0 1.157.719 1.875 1.875 1.875h2.75c1.156 0 1.875-.718 1.875-1.875v-1.75c0-.825-.371-1.421-1-1.698ZM12 12.25a.75.75 0 0 1 .75.75v.75h-1.5V13a.75.75 0 0 1 .75-.75Zm1.75 5.125c0 .336-.038.375-.375.375h-2.75c-.337 0-.375-.039-.375-.375v-1.75c0-.28.037-.35.24-.367l.01.002c.007 0 .012-.004.019-.004.035-.002.062-.006.106-.006h2.75c.044 0 .072.004.106.006.007 0 .012.004.019.004l.01-.002c.202.017.24.088.24.367v1.75Z"/></svg>

<svg width="24" height="24" viewBox="0 0 24 24" fill="none" xmlns="http://www.w3.org/2000/svg">
<path d="M18 3.75H16.75V3C16.75 2.586 16.414 2.25 16 2.25C15.586 2.25 15.25 2.586 15.25 3V3.75H8.75V3C8.75 2.586 8.414 2.25 8 2.25C7.586 2.25 7.25 2.586 7.25 3V3.75H6C3.582 3.75 2.25 5.082 2.25 7.5V18C2.25 20.418 3.582 21.75 6 21.75H18C20.418 21.75 21.75 20.418 21.75 18V7.5C21.75 5.082 20.418 3.75 18 3.75ZM6 5.25H7.25V6C7.25 6.414 7.586 6.75 8 6.75C8.414 6.75 8.75 6.414 8.75 6V5.25H15.25V6C15.25 6.414 15.586 6.75 16 6.75C16.414 6.75 16.75 6.414 16.75 6V5.25H18C19.577 5.25 20.25 5.923 20.25 7.5V8.25H3.75V7.5C3.75 5.923 4.423 5.25 6 5.25ZM18 20.25H6C4.423 20.25 3.75 19.577 3.75 18V9.75H20.25V18C20.25 19.577 19.577 20.25 18 20.25ZM14.25 13.927V13C14.25 11.759 13.24 10.75 12 10.75C10.76 10.75 9.75 11.759 9.75 13V13.927C9.121 14.204 8.75 14.8 8.75 15.625V17.375C8.75 18.532 9.469 19.25 10.625 19.25H13.375C14.531 19.25 15.25 18.532 15.25 17.375V15.625C15.25 14.8 14.879 14.204 14.25 13.927ZM12 12.25C12.413 12.25 12.75 12.586 12.75 13V13.75H11.25V13C11.25 12.586 11.587 12.25 12 12.25ZM13.75 17.375C13.75 17.711 13.712 17.75 13.375 17.75H10.625C10.288 17.75 10.25 17.711 10.25 17.375V15.625C10.25 15.345 10.287 15.2751 10.49 15.2581C10.494 15.2581 10.497 15.26 10.5 15.26C10.507 15.26 10.512 15.2561 10.519 15.2561C10.554 15.2541 10.581 15.25 10.625 15.25H13.375C13.419 15.25 13.447 15.2541 13.481 15.2561C13.488 15.2561 13.493 15.26 13.5 15.26C13.504 15.26 13.507 15.2581 13.51 15.2581C13.712 15.2751 13.75 15.346 13.75 15.625V17.375Z" fill="currentColor"/>
</svg>
